X:207
T:The musical priest
R:Reel
O:Ireland
S:Irish Traditional Music Session Tunes
B:Irish Traditional Music Session Tunes
Z:Transcription, chords:Mike Long
M:C|
L:1/8
K:D
BA|\
"Bm"FBBA BABd|"A"cBAf ecBA|\
"Bm"FBBA BABd|"A/F#m"cBAF "Bm"B2:|\
Bc|\
"D"d2dc dfed|
"A"(3(cBA) eA fAeA|"Bm"d2dc "D"dfed|"A"cBAG "F#m"FBBc|\
"D"d2dc dfed|"A"(3(cBA) eA fAeA|
"Bm"dcBc "G"dbaf|"A"edcd "Bm"B2\
|:Bc|\
"Bm"dB ~B2 bafb|"A"afec Acec|\
"Bm"dB ~B2 bafb|"A"afec "Bm"B2:|
